assets/img/icons/duotone-icons/Files/File-plus.svg

<?xml version="1.0" encoding="UTF-8"?>
<svg width="24px" height="24px" viewBox="0 0 24 24" version="1.1" xmlns="http://www.w3.org/2000/svg" xmlns:xlink="http://www.w3.org/1999/xlink">
    <!-- Generator: Sketch 52.2 (67145) - http://www.bohemiancoding.com/sketch -->
    <title>Stockholm-icons / Files / File-plus</title>
    <desc>Created with Sketch.</desc>
    <g id="Stockholm-icons-/-Files-/-File-plus" stroke="none" stroke-width="1" fill="none" fill-rule="evenodd">
        <polygon id="Shape" points="0 0 24 0 24 24 0 24"></polygon>
        <path d="M5.85714286,2 L13.7364114,2 C14.0910962,2 14.4343066,2.12568431 14.7051108,2.35473959 L19.4686994,6.3839416 C19.8056532,6.66894833 20,7.08787823 20,7.52920201 L20,20.0833333 C20,21.8738751 19.9795521,22 18.1428571,22 L5.85714286,22 C4.02044787,22 4,21.8738751 4,20.0833333 L4,3.91666667 C4,2.12612489 4.02044787,2 5.85714286,2 Z" id="Combined-Shape" fill="#335EEA" opacity="0.3"></path>
        <path d="M10.5857864,13 L9.17157288,11.5857864 C8.78104858,11.1952621 8.78104858,10.5620972 9.17157288,10.1715729 C9.56209717,9.78104858 10.1952621,9.78104858 10.5857864,10.1715729 L12,11.5857864 L13.4142136,10.1715729 C13.8047379,9.78104858 14.4379028,9.78104858 14.8284271,10.1715729 C15.2189514,10.5620972 15.2189514,11.1952621 14.8284271,11.5857864 L13.4142136,13 L14.8284271,14.4142136 C15.2189514,14.8047379 15.2189514,15.4379028 14.8284271,15.8284271 C14.4379028,16.2189514 13.8047379,16.2189514 13.4142136,15.8284271 L12,14.4142136 L10.5857864,15.8284271 C10.1952621,16.2189514 9.56209717,16.2189514 9.17157288,15.8284271 C8.78104858,15.4379028 8.78104858,14.8047379 9.17157288,14.4142136 L10.5857864,13 Z" id="Combined-Shape" fill="#335EEA"></path>
    </g>
</svg>

<svg width="24" height="24" viewBox="0 0 24 24" xmlns="http://www.w3.org/2000/svg"><g fill="none" fill-rule="evenodd"><path d="M0 0h24v24H0z"/><path d="M5.857 2h7.88a1.5 1.5 0 01.968.355l4.764 4.029A1.5 1.5 0 0120 7.529v12.554c0 1.79-.02 1.917-1.857 1.917H5.857C4.02 22 4 21.874 4 20.083V3.917C4 2.127 4.02 2 5.857 2z" fill="#335EEA" opacity=".3"/><path d="M10.586 13l-1.414-1.414a1 1 0 111.414-1.414L12 11.586l1.414-1.414a1 1 0 111.414 1.414L13.414 13l1.414 1.414a1 1 0 11-1.414 1.414L12 14.414l-1.414 1.414a1 1 0 11-1.414-1.414L10.586 13z" fill="#335EEA"/></g></svg>
